svg/shuffle_variant.svg

<svg xmlns="http://www.w3.org/2000/svg" viewBox="0 0 24 24"><path d="m17 3 5.25 4.5L17 12l5.25 4.5L17 21v-3h-2.74l-2.82-2.82 2.12-2.12L15.5 15H17V9h-1.5l-9 9H2v-3h3.26l9-9H17zM2 6h4.5l2.82 2.82-2.12 2.12L5.26 9H2z"/></svg>

<?xml version="1.0" encoding="UTF-8"?><!DOCTYPE svg PUBLIC "-//W3C//DTD SVG 1.1//EN" "http://www.w3.org/Graphics/SVG/1.1/DTD/svg11.dtd"><svg xmlns="http://www.w3.org/2000/svg" xmlns:xlink="http://www.w3.org/1999/xlink" version="1.1" id="mdi-shuffle-variant" width="24" height="24" viewBox="0 0 24 24"><path d="M17,3L22.25,7.5L17,12L22.25,16.5L17,21V18H14.26L11.44,15.18L13.56,13.06L15.5,15H17V12L17,9H15.5L6.5,18H2V15H5.26L14.26,6H17V3M2,6H6.5L9.32,8.82L7.2,10.94L5.26,9H2V6Z" /></svg>
